!!!!SEGMENT: Gom2006-Super_flumina_Babilonis.krn
!!!id: Gom2006
!!!AGN: Motet
!!!voices: 4
!!!COM: Nicolas Gombert
!!!OTL: Super flumina Babilonis
**kern	**text	**kern	**text	**kern	**text	**kern	**text
*part4	*part4	*part3	*part3	*part2	*part2	*part1	*part1
*staff4	*staff4	*staff3	*staff3	*staff2	*staff2	*staff1	*staff1
*I"Bassus	*	*I"Tenor	*	*I"Altus	*	*I"Superius	*
*I'B	*	*I'T	*	*I'A	*	*I'S	*
*clefF4	*	*clefGv2	*	*clefGv2	*	*clefG2	*
*k[b-]	*	*k[b-]	*	*k[b-]	*	*k[b-]	*
*F:	*	*F:	*	*F:	*	*F:	*
*M2/1	*	*M2/1	*	*M2/1	*	*M2/1	*
*met(C|)	*	*met(C|)	*	*met(C|)	*	*met(C|)	*
!!section: Prima pars: Super flumina Babilonis
!!!OMD: Prima pars: Super flumina Babilonis
=1	=1	=1	=1	=1	=1	=1	=1
0r	.	0r	.	1.c	Su-	0r	.
.	.	.	.	2B-y	-per	.	.
=2	=2	=2	=2	=2	=2	=2	=2
0r	.	0r	.	2A	flu-	0r	.
.	.	.	.	2G	-mi-	.	.
.	.	.	.	[1c	-na	.	.
=3	=3	=3	=3	=3	=3	=3	=3
0r	.	0r	.	2c]	.	1.g	Su-
.	.	.	.	2B-y	Ba-	.	.
.	.	.	.	2c	-bi-	.	.
.	.	.	.	2d	-lo-	2f	-per
=4	=4	=4	=4	=4	=4	=4	=4
0r	.	0r	.	1G	-nis	2e	flu-
.	.	.	.	.	.	2d	-mi-
.	.	.	.	2r	.	[1g	-na
.	.	.	.	2B-y	Su-	.	.
=5	=5	=5	=5	=5	=5	=5	=5
0r	.	1r	.	2c	-per	2g]	.
.	.	.	.	2d	flu-	2f	Ba-
.	.	[1c	Su-	2e	-mi-	2g	-bi-
.	.	.	.	[2f	-na	2a	-lo-
=6	=6	=6	=6	=6	=6	=6	=6
0r	.	2c]	.	2f]	.	1d	-nis
.	.	2B-y	-per	4e	.	.	.
.	.	.	.	4d	.	.	.
.	.	2A	flu-	2c	Ba-	2r	.
.	.	2G	-mi-	2B-y	-bi-	2d	Ba-
=7	=7	=7	=7	=7	=7	=7	=7
0r	.	1.c	-na	4A	-lo-	2.e	-bi-
.	.	.	.	4B-y	.	.	.
.	.	.	.	4c	.	.	.
.	.	.	.	4d	.	4f	.
.	.	.	.	4e	.	2g	-lo-
.	.	.	.	4f	.	.	.
.	.	2B-y	Ba-	[2g	.	2b-y	.
=8	=8	=8	=8	=8	=8	=8	=8
1r	.	2c	-bi-	2g]	.	1a	-nis
.	.	2d	-lo-	2f#i	.	.	.
[1G	Su-	1G	-nis	2g	-nis	1g	.
.	.	.	.	2G	il-	.	.
=9	=9	=9	=9	=9	=9	=9	=9
2G]	.	1r	.	2.A	-lic	2r	.
2F	-per	.	.	.	.	2d	il-
.	.	.	.	4B-y	se-	.	.
2E	flu-	2r	.	2c	-di-	2e	-lic
2D	-mi-	2A	Ba-	[2d	.	2f	se-
=10	=10	=10	=10	=10	=10	=10	=10
1.G	-na	2.B-y	-by-	4d]	.	2g	-di-
.	.	.	.	4c	.	.	.
.	.	.	.	4B-y	.	1b-y	.
.	.	4c	.	4A	.	.	.
.	.	2d	.	2G	.	.	.
2F	Ba-	2f	.	[2d	.	2a	.
=11	=11	=11	=11	=11	=11	=11	=11
2G	-bi-	1e	-lo-	2d]	.	2g	.
2A	-lo-	.	.	2c	.	4f	.
.	.	.	.	.	.	4e	.
1D	-nis	[1d	-nis	1B-y	.	2f	.
.	.	.	.	.	.	[2g	.
=12	=12	=12	=12	=12	=12	=12	=12
2r	.	1d]	.	2A	-mus	2g]	.
2D	Ba-	.	.	1d	et	2f#i	.
2.E	-bi-	1r	.	.	.	1g	-mus
.	.	.	.	2c	fle-	.	.
4F	.	.	.	.	.	.	.
=13	=13	=13	=13	=13	=13	=13	=13
2G	-lo-	1.d	il-	4B-y	-vi-	2r	.
.	.	.	.	4c	.	.	.
2B-y	.	.	.	4d	.	2g	et
.	.	.	.	4e	.	.	.
1A	.	.	.	4f	.	2a	fle-
.	.	.	.	4g	.	.	.
.	.	2c	-lic	4a	.	2a	-vi-
.	.	.	.	4f	.	.	.
=14	=14	=14	=14	=14	=14	=14	=14
2G	.	2B-y	se-	2g	-mus,	1b-y	-mus,
1G	.	2G	-di-	2d	il-	.	.
.	.	1d	-mus	2d	-lic	1a	.
2F	.	.	.	2d	se-	.	.
=15	=15	=15	=15	=15	=15	=15	=15
2E	.	1r	.	1e	-di-	2r	.
2C	.	.	.	.	.	1cc	[et
1G	-nis	2r	.	2d	-mus	.	.
.	.	[2G	il-	2d	et	2b-y	fle-
=16	=16	=16	=16	=16	=16	=16	=16
2r	.	2G]	.	2d	fle-	2a	.
1D	il-	2F	-lic	2d	-vi-	2f	-vi-
.	.	2E	se-	1e	.	1g	-mus,
2C	-lic	2C	-di-	.	.	.	.
=17	=17	=17	=17	=17	=17	=17	=17
2BB-y	se-	1G	-mus	2.d	.	1b-y	et
2GG	-di-	.	.	.	.	.	.
.	.	.	.	4c	.	.	.
2.D	-mus	2.F	et	4d	.	[1a	fle-
.	.	.	.	4e	.	.	.
.	.	.	.	[2f	.	.	.
4E	et	4G	fle-	.	.	.	.
=18	=18	=18	=18	=18	=18	=18	=18
2F	fle-	2A	-vi-	4f]	.	2a]	.
.	.	.	.	4e	.	.	.
2G	.	2B-y	.	1d	.	2g	-vi-
1E	-vi-	1G	.	.	.	2b-y	.
.	.	.	.	2c#i	.	4a	.
.	.	.	.	.	.	4g	.
=19	=19	=19	=19	=19	=19	=19	=19
0D	-mus,	1A	-mus,	0d	-mus,	0f	-mus]
.	.	2r	.	.	.	.	.
.	.	2A	dum	.	.	.	.
=20	=20	=20	=20	=20	=20	=20	=20
2r	.	2A	re-	1r	.	2r	.
2D	dum	2A	-cor-	.	.	2f	dum
2D	re-	1B-y	-da-	2r	.	2f	re-
2D	-cor-	.	.	2B-y	dum	2f	-cor-
=21	=21	=21	=21	=21	=21	=21	=21
1E-X	-da-	1G	-re-	2B-y	re-	1g	-da-
.	.	.	.	2B-y	-cor-	.	.
1C	-re-	1A	-mur	1c	-da-	1e-i	-re-
=22	=22	=22	=22	=22	=22	=22	=22
1D	.	2r	.	1A	-re-	1f	-mur
.	.	2F	dum	.	.	.	.
1BB-y	-mur	2F	re-	1B-y	-mur	1d	dum
.	.	2F	-cor-	.	.	.	.
=23	=23	=23	=23	=23	=23	=23	=23
2BB-y	dum	1G	-da-	2r	.	2d	re-
2BB-y	re-	.	.	2G	dum	2d	-cor-
1C	-cor-	1E	-re-	2G	re-	1e	-da-
.	.	.	.	2G	-cor-	.	.
=24	=24	=24	=24	=24	=24	=24	=24
1AA	-da-	1F	-mur	2A	-da-	1c	-re-
.	.	.	.	2A	-re-	.	.
2BB-y	-re-	1r	.	[1F	-mur	1d	-mur
[2D	.	.	.	.	.	.	.
=25	=25	=25	=25	=25	=25	=25	=25
4D]	.	1r	.	2F]	.	1a	dum
4BB-y	.	.	.	.	.	.	.
2C	.	.	.	2E	.	.	.
1D	.	1d	dum	4F	.	2a	re-
.	.	.	.	2G	.	.	.
.	.	.	.	.	.	2a	-cor-
.	.	.	.	4F	.	.	.
=26	=26	=26	=26	=26	=26	=26	=26
2GG	-mur	2d	re-	2G	.	1b-y	-da-
2G	tu-	2d	-cor-	2B-y	tu-	.	.
2E	-i	1e	-da-	2c	-i	1g	-re-
2C	Si-	.	.	2c	Si-	.	.
=27	=27	=27	=27	=27	=27	=27	=27
2.F	.	1c	-re-	2A	.	2.a	-mur
.	.	.	.	2F	.	.	.
4E	.	.	.	.	.	4g	.
4D	.	1d	-mur	2.B-y	.	4f	.
4C	.	.	.	.	.	4e	.
4BB-y	.	.	.	.	.	2d	tu-
4AA	.	.	.	4c	.	.	.
=28	=28	=28	=28	=28	=28	=28	=28
2GG	.	2.B-y	tu-	2d	.	2.g	-i
1G	.	.	.	1B-y	.	.	.
.	.	4A	-i	.	.	4a	.
.	.	2G	Si-	.	.	2b-y	Si-
2F	.	2A	.	2c	.	[2a	.
=29	=29	=29	=29	=29	=29	=29	=29
2E-X	.	2B-y	.	1e-i	.	4a]	.
.	.	.	.	.	.	4g	.
2C	.	2c	.	.	.	1g	.
1D	.	1A	.	1d	.	.	.
.	.	.	.	.	.	2f#i	.
=30	=30	=30	=30	=30	=30	=30	=30
0GG	-on.	1G	-on.	0B-y	-on.	0g	-on.
.	.	2r	.	.	.	.	.
.	.	[2d	In	.	.	.	.
=31	=31	=31	=31	=31	=31	=31	=31
0r	.	2d]	.	0r	.	2r	.
.	.	2c	sa-	.	.	1a	In
.	.	2d	-li-	.	.	.	.
.	.	2e	-ci-	.	.	2g	sa-
=32	=32	=32	=32	=32	=32	=32	=32
0r	.	1.f	-bus	0r	.	2.a	-li-
.	.	.	.	.	.	4b-y	-ci-
.	.	.	.	.	.	[1cc	-bus
.	.	2f	in	.	.	.	.
=33	=33	=33	=33	=33	=33	=33	=33
0r	.	2f	me-	0r	.	2cc]	.
.	.	2f	-di-	.	.	2cc	in
.	.	2e	-o	.	.	2cc	me-
.	.	2c	e-	.	.	2cc	-di-
=34	=34	=34	=34	=34	=34	=34	=34
1.G	In	1d	-ius	1r	.	2b-y	-o
.	.	.	.	.	.	2g	e-
.	.	1r	.	[1d	In	2.a	.
2F	sa-	.	.	.	.	.	.
.	.	.	.	.	.	8gL	.
.	.	.	.	.	.	8fJ	.
=35	=35	=35	=35	=35	=35	=35	=35
2G	-li-	0r	.	2d]	.	2e	.
2A	-ci-	.	.	2c	sa-	2.f	.
[1B-y	-bus	.	.	2.d	-li-	.	.
.	.	.	.	.	.	4e	.
.	.	.	.	.	.	4d	.
.	.	.	.	4e	-ci-	4c	.
=36	=36	=36	=36	=36	=36	=36	=36
2B-]	.	2r	.	1.f	-bus	1d	-ius
2B-y	in	2d	in	.	.	.	.
2B-y	me-	2d	me-	.	.	1r	.
2B-y	-di-	2d	-di-	2f	in	.	.
=37	=37	=37	=37	=37	=37	=37	=37
2A	-o	2c	-o	2f	me-	1r	.
2F	e-	2A	e-	2f	-di-	.	.
2G	.	2B-y	.	2e	-o	[1g	In
4F	.	4A	.	2c	e-	.	.
4E	.	4G	.	.	.	.	.
=38	=38	=38	=38	=38	=38	=38	=38
1D	-ius	2A	.	2d	.	2g]	.
.	.	1B-y	.	1d	.	2f	sa-
1r	.	.	.	.	.	2g	-li-
.	.	[2A	.	2c	.	2a	-ci-
=39	=39	=39	=39	=39	=39	=39	=39
1r	.	4A]	.	2.d	-ius	1b-y	-bus
.	.	4G	.	.	.	.	.
.	.	2G	.	.	.	.	.
.	.	.	.	4e	.	.	.
[1D	in	2.A	.	2f	in	1r	.
.	.	.	.	2f	me-	.	.
.	.	4G	.	.	.	.	.
=40	=40	=40	=40	=40	=40	=40	=40
2D]	.	4A	.	2f	-di-	2r	.
.	.	4B-y	.	.	.	.	.
2C	me-	2c	.	2e	.	1a	In
2D	-di-	2B-y	.	2f	.	.	.
2E	-o	[2c	-ius	2e	.	2g	sa-
=41	=41	=41	=41	=41	=41	=41	=41
1.F	e-	4c]	.	1c	-o	2.a	-li-
.	.	4B-y	.	.	.	.	.
.	.	4A	.	.	.	.	.
.	.	4G	.	.	.	4b-y	-ci-
.	.	2A	in	2r	.	[1cc	-bus
2F	.	2A	me-	2f	in	.	.
=42	=42	=42	=42	=42	=42	=42	=42
2F	.	2A	-di-	2f	me-	2cc]	.
2F	.	2A	-o	2f	-di-	2cc	in
1C	.	2.G	e-	2e	-o	2cc	me-
.	.	.	.	2c	e-	2cc	-di-
.	.	4A	.	.	.	.	.
=43	=43	=43	=43	=43	=43	=43	=43
1G	-ius	4B-y	.	2.d	.	2b-y	-o
.	.	4c	.	.	.	.	.
.	.	4d	.	.	.	2g	e-
.	.	4e	.	8cL	.	.	.
.	.	.	.	8B-yJ	.	.	.
1F	.	2f	.	2c	.	[1a	-ius
.	.	2c	.	[2f	.	.	.
=44	=44	=44	=44	=44	=44	=44	=44
1r	.	4d	.	4f]	.	0a]	.
.	.	4e	.	4e	.	.	.
.	.	4f	.	1d	.	.	.
.	.	4d	.	.	.	.	.
1A	sus-	2e	.	.	.	.	.
.	.	2f	-ius	2c	.	.	.
=45	=45	=45	=45	=45	=45	=45	=45
1.G	-pen-	2B-y	sus-	[0d	-ius	0r	.
.	.	2B-y	-pen-	.	.	.	.
.	.	2B-y	-di-	.	.	.	.
2F	-di-	2A	.	.	.	.	.
=46	=46	=46	=46	=46	=46	=46	=46
1.B-y	-mus	1.G	.	0d]	.	0r	.
2A	or-	2F	-mus	.	.	.	.
=47	=47	=47	=47	=47	=47	=47	=47
2.G	-ga-	2.B-y	or-	1d	[e-	0r	.
4F	.	4A	.	.	.	.	.
2E	-na	2G	-ga-	2c	.	.	.
2D	nos-	2F	.	2B-y	.	.	.
=48	=48	=48	=48	=48	=48	=48	=48
1C	-tra,	2G	.	1e-i	.	1g	sus-
.	.	2c	.	.	.	.	.
1r	.	2B-y	.	2d	.	2g	-pen-
.	.	2A	-na	2c	-ius]	2f	-di-
=49	=49	=49	=49	=49	=49	=49	=49
0r	.	2.d	nos-	2.f	sus-	2b-y	-mus
.	.	.	.	.	.	2a	.
.	.	4c	.	4e	-pen-	.	.
.	.	2B-y	.	2d	-di-	2g	.
.	.	[2A	.	[2c	-mus	2f	.
=50	=50	=50	=50	=50	=50	=50	=50
1A	sus-	4A]	.	4c]	.	2.e	or-
.	.	4B-y	.	4d	.	.	.
.	.	4c	.	4e	.	.	.
.	.	4A	.	4c	.	4f	.
2G	-pen-	2B-y	-tra,	4d	.	2g	-ga-
.	.	.	.	4e	.	.	.
2F	-di-	2c	or-	[2f	or-	2a	-na
=51	=51	=51	=51	=51	=51	=51	=51
2.B-y	-mus	2.d	-ga-	2f]	.	1f	nos-
.	.	.	.	2d	-ga-	.	.
4A	.	4c	.	.	.	.	.
2G	or-	2B-y	-na	2e	.	2g	.
2F	-ga-	2A	.	[2d	.	2a	.
=52	=52	=52	=52	=52	=52	=52	=52
2E	-na	2B-y	.	4d]	.	2g	.
.	.	.	.	4c	.	.	.
2C	.	2c	.	1c	-na	4f	.
.	.	.	.	.	.	4e	.
1D	.	2.F	nos-	.	.	1f	-tra,
.	.	.	.	2BnXi	nos-	.	.
.	.	4G	.	.	.	.	.
=53	=53	=53	=53	=53	=53	=53	=53
2C	nos-	2A	.	2c	.	0r	.
2BB-y	.	2.B-y	.	2d	.	.	.
1C	.	.	.	1e	-tra,	.	.
.	.	8AL	.	.	.	.	.
.	.	8GJ	.	.	.	.	.
.	.	2A	.	.	.	.	.
=54	=54	=54	=54	=54	=54	=54	=54
2D	.	2F	.	2d	nos-	1B-y	qui-
2E	.	2G	.	1B-y	.	.	.
1C	.	1E-i	-tra,	.	.	2c	-a
.	.	.	.	2A	.	2c	il-
=55	=55	=55	=55	=55	=55	=55	=55
2BB-y	-tra,	1B-y	qui-	1G	.	1d	-lic
1B-y	qui-	.	.	.	.	.	.
.	.	2c	-a	1F	-tra,	[1f	qui-
2A	-a	2c	il-	.	.	.	.
=56	=56	=56	=56	=56	=56	=56	=56
2.B-y	il-	1d	-lic	2r	.	1f]	.
.	.	.	.	1f	nos-	.	.
4A	.	.	.	.	.	.	.
1G	.	1B-y	in-	.	.	2g	-a
.	.	.	.	2e	.	2g	il-
=57	=57	=57	=57	=57	=57	=57	=57
1F	-lic	2c	-ter-	2.f	.	2a	-lic
.	.	2d	-ro-	.	.	2f	in-
.	.	.	.	8eL	.	.	.
.	.	.	.	8dJ	.	.	.
1r	.	2e	-ga-	1c	-tra,	2g	-ter-
.	.	2c	-ve-	.	.	2a	-ro-
=58	=58	=58	=58	=58	=58	=58	=58
0r	.	1g	-runt	1r	.	2b-y	-ga-
.	.	.	.	.	.	2g	-ve-
.	.	2.f	.	1B-y	qui-	1dd	-runt
.	.	8eL	.	.	.	.	.
.	.	8dJ	.	.	.	.	.
=59	=59	=59	=59	=59	=59	=59	=59
0r	.	4e	.	2c	-a	2.cc	.
.	.	4f	.	.	.	.	.
.	.	2g	.	2c	il-	.	.
.	.	.	.	.	.	4b-y	.
.	.	2g	.	1d	-lic	1a	.
.	.	2f	.	.	.	.	.
=60	=60	=60	=60	=60	=60	=60	=60
0r	.	4e	.	2r	.	1g	nos,
.	.	8dL	.	.	.	.	.
.	.	8cJ	.	.	.	.	.
.	.	2d	.	2B-y	in-	.	.
.	.	2e	.	2c	-ter-	2r	.
.	.	2d	.	2d	-ro-	2f	in-
=61	=61	=61	=61	=61	=61	=61	=61
0r	.	2c	.	2e-i	-ga-	2g	-ter-
.	.	4B-y	.	2c	-ve-	2a	-ro-
.	.	4A	.	.	.	.	.
.	.	2G	.	2.g	-runt	2b-y	-ga-
.	.	2c	.	.	.	2g	-ve-
.	.	.	.	8fL	.	.	.
.	.	.	.	8e-iJ	.	.	.
=62	=62	=62	=62	=62	=62	=62	=62
1BB-y	qui-	2B-y	.	1f	.	2.dd	-runt
.	.	2d	.	.	.	.	.
.	.	.	.	.	.	8ccL	.
.	.	.	.	.	.	8b-yJ	.
2C	-a	1c	.	1e	.	2a	.
2C	il-	.	.	.	.	2g	.
=63	=63	=63	=63	=63	=63	=63	=63
1D	-lic	2A	nos,	0d	nos,	3f	.
.	.	.	.	.	.	3g	.
.	.	2F	qui-	.	.	.	.
.	.	.	.	.	.	3a	.
2r	.	2G	-a	.	.	3b-y	.
.	.	.	.	.	.	3a	.
2BB-y	qui-	2G	il-	.	.	.	.
.	.	.	.	.	.	3g	.
=64	=64	=64	=64	=64	=64	=64	=64
2C	-a	2A	-lic	1r	.	3f	.
.	.	.	.	.	.	3e	.
2D	il-	2F	in-	.	.	.	.
.	.	.	.	.	.	3c	.
2E-i	.	2G	-ter-	1c	in-	3f	nos,
.	.	.	.	.	.	3%2e	.
2C	-lic	2A	-ro-	.	.	.	.
=65	=65	=65	=65	=65	=65	=65	=65
2.G	in-	2B-y	-ga-	2d	-ter-	0r	.
.	.	2G	-ve-	2e	-ro-	.	.
4F	-ter-	.	.	.	.	.	.
2D	-ro-	2.d	-runt	2f	-ga-	.	.
2G	-ga-	.	.	2d	-ve-	.	.
.	.	8cL	.	.	.	.	.
.	.	8B-yJ	.	.	.	.	.
=66	=66	=66	=66	=66	=66	=66	=66
2F	-ve-	2c	.	1a	-runt	0r	.
4E	.	1d	.	.	.	.	.
4D	.	.	.	.	.	.	.
1E	-runt	.	.	1g	nos,	.	.
.	.	2c#i	.	.	.	.	.
=67	=67	=67	=67	=67	=67	=67	=67
2.D	nos,	1d	nos,	2r	.	1a	qui
.	.	.	.	2f	qui	.	.
4C	.	.	.	.	.	.	.
1AA	.	2r	.	2f	cap-	[1cc	cap-
.	.	2c	qui	2e	-ti-	.	.
=68	=68	=68	=68	=68	=68	=68	=68
0r	.	1.f	cap-	1d	-vos	2cc]	.
.	.	.	.	.	.	2b-y	-ti-
.	.	.	.	1c	du-	2a	-vos
.	.	2e	-ti-	.	.	2g	du-
=69	=69	=69	=69	=69	=69	=69	=69
0r	.	1d	-vos	1.f	-xe-	2b-y	.
.	.	.	.	.	.	2a	.
.	.	1r	.	.	.	1g	-xe-
.	.	.	.	2e	-runt	.	.
=70	=70	=70	=70	=70	=70	=70	=70
1r	.	1F	du-	2d	.	1a	.
.	.	.	.	2c	.	.	.
1C	qui	[1c	-xe-	1e	.	[1g	-runt
=71	=71	=71	=71	=71	=71	=71	=71
1.G	cap-	2c]	.	2.d	.	1g]	.
.	.	2B-y	.	.	.	.	.
.	.	.	.	8cL	.	.	.
.	.	.	.	8B-yJ	.	.	.
.	.	1A	-runt	[1c	nos,	1r	.
2F	-ti-	.	.	.	.	.	.
=72	=72	=72	=72	=72	=72	=72	=72
2E	-vos	2G	.	2c]	.	1r	.
2D	du-	2B-y	.	1d	qui	.	.
2F	-xe-	2A	.	.	.	2r	.
2E	.	2G	.	2c	cap-	2c	nos,
=73	=73	=73	=73	=73	=73	=73	=73
2.D	-runt	1A	.	1.d	-ti-	1.f	.
4C	.	.	.	.	.	.	.
2BB-y	.	2.G	nos,	.	.	.	.
2C	.	.	.	[2c	-vos	2e	.
.	.	4F	.	.	.	.	.
=74	=74	=74	=74	=74	=74	=74	=74
2GG	.	4G	.	4c]	.	2d	.
.	.	4F	.	4B-y	du-	.	.
1C	.	4E	.	2.G	-xe-	2c	du-
.	.	4D	.	.	.	.	.
.	.	2E	.	.	.	2e	-xe-
.	.	.	.	4A	.	.	.
2BB-y	.	[2F	.	2B-y	.	2d	.
=75	=75	=75	=75	=75	=75	=75	=75
2.C	.	2F]	.	2A	.	1.c	-runt
.	.	1E	.	2.G	.	.	.
4BB-y	.	.	.	.	.	.	.
1AA	.	.	.	.	.	.	.
.	.	.	.	8F#iL	.	.	.
.	.	.	.	8EJ	.	.	.
.	.	4D	.	2F#i	-runt	4B-y	.
.	.	4C	.	.	.	4A	.
=76	=76	=76	=76	=76	=76	=76	=76
0GG	nos,	2D	.	0G	nos,	0B-y	nos,
.	.	1d	ver-	.	.	.	.
.	.	2B-y	-ba	.	.	.	.
=77	=77	=77	=77	=77	=77	=77	=77
2r	.	2c	can-	2r	.	0r	.
1G	ver-	2d	-ti-	1B-y	ver-	.	.
.	.	1e	-o-	.	.	.	.
2E	-ba	.	.	2G	-ba	.	.
=78	=78	=78	=78	=78	=78	=78	=78
2F	can-	2.d	.	2A	can-	0r	.
2G	-ti-	.	.	2B-y	-ti-	.	.
.	.	4e	.	.	.	.	.
1A	-o-	2f	.	1c	-o-	.	.
.	.	[2e	.	.	.	.	.
=79	=79	=79	=79	=79	=79	=79	=79
2.G	-num,	4e]	.	1B-y	-num,	1.g	ver-
.	.	4d	.	.	.	.	.
.	.	1d	.	.	.	.	.
4F	.	.	.	.	.	.	.
1E	.	.	.	1G	.	.	.
.	.	2c#i	.	.	.	2e	-ba
=80	=80	=80	=80	=80	=80	=80	=80
0r	.	2d	-num,	2r	.	2f	can-
.	.	1c	[ver-	1e	ver-	2g	-ti-
.	.	.	.	.	.	1a	-o-
.	.	2A	-ba	2c	-ba	.	.
=81	=81	=81	=81	=81	=81	=81	=81
0r	.	2B-y	can-	2d	can-	2.g	.
.	.	2c	-ti-	2e	-ti-	.	.
.	.	.	.	.	.	4a	.
.	.	1d	.	1f	-o-	2b-y	.
.	.	.	.	.	.	[2a	.
=82	=82	=82	=82	=82	=82	=82	=82
1r	.	1c	-o-	1e	.	4a]	.
.	.	.	.	.	.	4g	.
.	.	.	.	.	.	1g	.
1D	ver-	1A	.	2.d	.	.	.
.	.	.	.	.	.	2f#i	.
.	.	.	.	4c	.	.	.
=83	=83	=83	=83	=83	=83	=83	=83
1.G	-ba	2B-y	.	2B-y	.	2g	-num,
.	.	1d	.	4G	.	1b-y	[ver-
.	.	.	.	4A	.	.	.
.	.	.	.	4B-y	.	.	.
.	.	.	.	4c	.	.	.
2G	can-	2B-y	.	4d	.	2g	-ba
.	.	.	.	4e	.	.	.
=84	=84	=84	=84	=84	=84	=84	=84
2F	-ti-	2c	.	1f	.	2a	can-
4E	.	2d	.	.	.	2b-y	-ti-
4D	.	.	.	.	.	.	.
1C	-o-	1e-i	.	1g	.	1cc	-o-
=85	=85	=85	=85	=85	=85	=85	=85
2GG	-num,	1d	-num,]	0g	-num,	1.b-y	.
2G	et	.	.	.	.	.	.
2G	qui	2r	.	.	.	.	.
2G	ab-	2d	et	.	.	4a	.
.	.	.	.	.	.	4g	.
=86	=86	=86	=86	=86	=86	=86	=86
1.B-y	-du-	2d	qui	0r	.	1f	-num,]
.	.	2d	ab-	.	.	.	.
.	.	[1f	-du-	.	.	1r	.
2A	.	.	.	.	.	.	.
=87	=87	=87	=87	=87	=87	=87	=87
2F	-xe-	2f]	.	0r	.	0r	.
2.G	.	2e	-xe-	.	.	.	.
.	.	2d	-runt	.	.	.	.
4F	.	.	.	.	.	.	.
4E	.	[2e	.	.	.	.	.
4D	.	.	.	.	.	.	.
=88	=88	=88	=88	=88	=88	=88	=88
2C	.	4e]	.	1r	.	0r	.
.	.	4d	.	.	.	.	.
2.E	.	4c	.	.	.	.	.
.	.	4B-y	.	.	.	.	.
.	.	2A	.	1d	et	.	.
4D	.	.	.	.	.	.	.
[2G	.	[2B-y	.	.	.	.	.
=89	=89	=89	=89	=89	=89	=89	=89
2G]	.	2B-]	.	2d	qui	0r	.
4F	.	4A	.	2d	ab-	.	.
4E	.	4G	.	.	.	.	.
1D	-runt	2A	.	[1f	-du-	.	.
.	.	2B-y	.	.	.	.	.
=90	=90	=90	=90	=90	=90	=90	=90
1C	nos,	1c	nos,	2f]	.	1g	et
.	.	.	.	2e	-xe-	.	.
1r	.	1r	.	2c	.	2g	qui
.	.	.	.	[2d	-runt	2f	ab-
=91	=91	=91	=91	=91	=91	=91	=91
0r	.	2r	.	4d]	.	1.b-y	-du-
.	.	.	.	4c	.	.	.
.	.	2d	et	4B-y	.	.	.
.	.	.	.	4A	.	.	.
.	.	2d	qui	4G	.	.	.
.	.	.	.	4F	.	.	.
.	.	2d	ab-	[2f	nos,	[2a	-xe-
=92	=92	=92	=92	=92	=92	=92	=92
0r	.	1.f	-du-	4f]	.	4a]	.
.	.	.	.	4e	.	4g	.
.	.	.	.	4d	.	4f	.
.	.	.	.	4c	.	4e	.
.	.	.	.	2B-y	.	2d	-runt
.	.	2e	-xe-	2c	.	[2g	.
=93	=93	=93	=93	=93	=93	=93	=93
1r	.	2c	-runt	2A	.	2g]	.
.	.	2.d	.	1B-y	.	2f	nos,
1G	et	.	.	.	.	2.b-y	et
.	.	4c	.	.	.	.	.
.	.	4B-y	.	4A	.	.	.
.	.	4A	.	4G	.	4cc	qui
=94	=94	=94	=94	=94	=94	=94	=94
2G	qui	2G	nos,	2.B-y	.	2dd	ab-
2G	ab-	2d	et	.	.	2.b-y	-du-
.	.	.	.	4A	.	.	.
[1B-y	-du-	2d	qui	1G	.	.	.
.	.	.	.	.	.	4cc	.
.	.	2d	ab-	.	.	4dd	.
.	.	.	.	.	.	4b-y	.
=95	=95	=95	=95	=95	=95	=95	=95
2B-]	.	2f	-du-	1F	.	2.cc	-xe-
2A	-xe-	2c	-xe-	.	.	.	.
.	.	.	.	.	.	4b-y	.
2F	-runt	2.d	-runt	2r	.	2a	-runt
[2G	.	.	.	2d	Hym-	2b-y	.
.	.	4c	.	.	.	.	.
=96	=96	=96	=96	=96	=96	=96	=96
2G]	.	4B-y	.	2d	-num	1g	nos,
.	.	8AL	.	.	.	.	.
.	.	8GJ	.	.	.	.	.
4F	.	2.c	.	2e	can-	.	.
4E	.	.	.	.	.	.	.
1D	nos,	.	.	2f	-ta-	1r	.
.	.	8BnXiL	.	.	.	.	.
.	.	8AJ	.	.	.	.	.
.	.	4Bni	.	2d	-te	.	.
.	.	8AL	.	.	.	.	.
.	.	8BniJ	.	.	.	.	.
=97	=97	=97	=97	=97	=97	=97	=97
2C	[du-	1c	nos,	1e	no-	1g	Hym-
2C	-xe-	.	.	.	.	.	.
2G	.	2r	.	1d	-bis	2g	-num
2F	-runt	2d	Hym-	.	.	2a	can-
=98	=98	=98	=98	=98	=98	=98	=98
2G	.	2d	-num	1r	.	2b-y	-ta-
2E	.	2e	can-	.	.	2g	.
1D	nos,]	2f	-ta-	2r	.	2a	.
.	.	2d	-te	2F	Hym-	[2b-y	.
=99	=99	=99	=99	=99	=99	=99	=99
2r	.	2e	no-	2G	-num	2b-]	.
2D	Hym-	2.f	.	2A	can-	2.a	.
2D	-num	.	.	2B-y	-ta-	.	.
.	.	4e	.	.	.	4g	.
2E	can-	[2e	.	2G	-te	[2g	-te
=100	=100	=100	=100	=100	=100	=100	=100
2F	-ta-	4e]	.	1A	no-	2g]	.
.	.	4d	.	.	.	.	.
2D	-te	1d	.	.	.	2f#i	no-
1E	no-	.	.	2.G	.	1g	.
.	.	2c#i	.	.	.	.	.
.	.	.	.	4A	.	.	.
=101	=101	=101	=101	=101	=101	=101	=101
1D	-bis	2d	-bis	4B-y	.	0f	-bis
.	.	.	.	4c	.	.	.
.	.	2A	Hym-	2.d	.	.	.
2r	.	2B-y	-num	.	.	.	.
.	.	.	.	4c	.	.	.
2D	de	2d	can-	4B-y	.	.	.
.	.	.	.	4A	.	.	.
=102	=102	=102	=102	=102	=102	=102	=102
2E	can-	2c	-ta-	2G	-bis	0r	.
2G	-ti-	2B-y	-te	2G	de	.	.
2F	-cis	2A	no-	1c	can-	.	.
2E	Si-	2G	.	.	.	.	.
=103	=103	=103	=103	=103	=103	=103	=103
2D	.	1A	.	2d	-ti-	1f	de
2D	-on,	.	.	2f	-cis	.	.
2E	Si-	1G	-bis	2e	Si-	2g	can-
2G	.	.	.	[2d	.	2b-y	-ti-
=104	=104	=104	=104	=104	=104	=104	=104
2F	.	2r	.	4d]	.	2a	-cis
.	.	.	.	4c	.	.	.
2E	.	4G	de	4c	.	2g	Si-
.	.	4A	.	8B-yL	.	.	.
.	.	.	.	8cJ	.	.	.
1D	-on,	4B-y	.	2d	-on,	2f	.
.	.	4c	.	.	.	.	.
.	.	[2d	can-	2A	de	2f	.
=105	=105	=105	=105	=105	=105	=105	=105
0r	.	4d]	.	2B-y	can-	2f	.
.	.	4e	-ti-	.	.	.	.
.	.	4f	.	2d	-ti-	2f	.
.	.	4d	.	.	.	.	.
.	.	2e	-cis	2c	.	4g	.
.	.	.	.	.	.	4f	.
.	.	[2d	Si-	2B-y	.	4e	.
.	.	.	.	.	.	4d	.
=106	=106	=106	=106	=106	=106	=106	=106
1AA	de	4d]	.	1A	-cis	1e	.
.	.	4c	.	.	.	.	.
.	.	2c	.	.	.	.	.
2BB-y	can-	2d	-on,	1F	Si-	3d	.
.	.	.	.	.	.	3e	.
2D	-ti-	2D	de	.	.	.	.
.	.	.	.	.	.	3f	.
=107	=107	=107	=107	=107	=107	=107	=107
2C	-cis	2E	can-	1G	.	2e	.
2BB-y	Si-	2G	-ti-	.	.	1d	.
1AA	-on.	2F	-cis	1A	-on.	.	.
.	.	2E	Si-	.	.	2c#i	.
=108	=108	=108	=108	=108	=108	=108	=108
*M3/1	*	*M3/1	*	*M3/1	*	*M3/1	*
*met(3)	*	*met(3)	*	*met(3)	*	*met(3)	*
1r	.	1D	-on.	0A	Quo-	0.d	-on.
0D	Quo-	0F	Quo-	.	.	.	.
.	.	.	.	1B-y	-mo-	.	.
=109	=109	=109	=109	=109	=109	=109	=109
1E	-mo-	1G	-mo-	1.c	-do	0.r	.
1F	-do	1A	-do	.	.	.	.
.	.	.	.	2A	can-	.	.
1D	can-	1F	can-	1B-y	-ta-	.	.
=110	=110	=110	=110	=110	=110	=110	=110
1E	-ta-	1G	-ta-	1c	.	0r	.
1F	-bi-	1A	-bi-	0d	-bi-	.	.
1G	-mus	1B-y	.	.	.	[1d	Quo-
=111	=111	=111	=111	=111	=111	=111	=111
0.r	.	0G	-mus	0B-y	-mus	1d]	.
.	.	.	.	.	.	1e	-mo-
.	.	1A	.	1c	Quo-	[1f	-do
=112	=112	=112	=112	=112	=112	=112	=112
0.r	.	1B-y	.	1d	-mo-	2f]	.
.	.	.	.	.	.	2d	can-
.	.	1G	can-	1B-y	-do	1e	-ta-
.	.	1A	-ti-	1c	can-	1f	-bi-
=113	=113	=113	=113	=113	=113	=113	=113
0r	.	1B-y	.	1d	-ta-	1g	-mus
.	.	1c	.	1e	-bi-	0a	can-
[1D	Quo-	1d	.	[1f	-mus	.	.
=114	=114	=114	=114	=114	=114	=114	=114
1D]	.	1A	-cum	1f]	.	1a	-ti-
1E	-mo-	2c	Do-	1e	can-	1g	-cum
.	.	2B-y	.	.	.	.	.
1F	-do	1A	.	1c	-ti-	1f	Do-
=115	=115	=115	=115	=115	=115	=115	=115
1D	can-	1d	.	1f	-cum	1.b-y	.
1E	-ta-	0c	-mi-	1g	Do-	.	.
.	.	.	.	.	.	4a	.
.	.	.	.	.	.	4g	.
1F	-bi-	.	.	1f	-mi-	1a	-mi-
=116	=116	=116	=116	=116	=116	=116	=116
0G	-mus	1B-y	-ni	0d	-ni	0.b-y	-ni
.	.	0d	can-	.	.	.	.
1B-y	can-	.	.	1g	can-	.	.
=117	=117	=117	=117	=117	=117	=117	=117
1A	-ti-	1c	-ti-	1f	-ti-	0.r	.
1.G	-cum	1.B-y	-cum	1.e	.	.	.
2F	Do-	2A	Do-	2d	.	.	.
=118	=118	=118	=118	=118	=118	=118	=118
1D	.	0A	.	1.d	.	0.r	.
0E	-mi-	.	.	.	.	.	.
.	.	.	.	4c#i	.	.	.
.	.	.	.	4BnXi	.	.	.
.	.	1G	.	1c#i	-cum	.	.
=119	=119	=119	=119	=119	=119	=119	=119
0D	-ni	1A	.	0d	Do-	0f	can-
.	.	0B-y	-mi-	.	.	.	.
1BB-y	can-	.	.	1d	-mi-	1f	-ti-
=120	=120	=120	=120	=120	=120	=120	=120
1C	-ti-	0.G	-ni	1c	-ni	1e	-cum
1GG	-cum	.	.	0B-y	can-	1.d	Do-
1BB-y	Do-	.	.	.	.	.	.
.	.	.	.	.	.	2c	.
=121	=121	=121	=121	=121	=121	=121	=121
1C	.	0.r	.	1.A	-ti-	1A	.
1D	-mi-	.	.	.	.	1.B-y	.
.	.	.	.	4G	.	.	.
.	.	.	.	4F	.	.	.
1E	-ni	.	.	1G	.	.	.
.	.	.	.	.	.	2c	.
=122	=122	=122	=122	=122	=122	=122	=122
1.F	can-	0A	can-	1A	-cum	2d	.
.	.	.	.	.	.	2c	.
.	.	.	.	0c	Do-	1f	.
2E	-ti-	.	.	.	.	.	.
1C	-cum	1G	-ti-	.	.	1e	.
=123	=123	=123	=123	=123	=123	=123	=123
1.D	Do-	1F	-cum	1B-y	-mi-	1d	.
.	.	1.A	Do-	1A	.	1.f	.
2C	-mi-	.	.	.	.	.	.
1AA	-ni	.	.	[1c	.	.	.
.	.	2G	.	.	.	2e	.
=124	=124	=124	=124	=124	=124	=124	=124
1.C	Do-	1E	.	2c]	.	2c	.
.	.	.	.	2B-y	.	2d	.
.	.	1.G	.	2G	.	1.e	.
2BB-y	.	.	.	2A	.	.	.
1GG	.	.	.	1B-y	.	.	.
.	.	2F	.	.	.	2d	.
=125	=125	=125	=125	=125	=125	=125	=125
1BB-y	.	1D	-mi-	1G	.	1.d	.
0AA	.	0E	-ni	0A	-ni	.	.
.	.	.	.	.	.	4c#i	-mi-
.	.	.	.	.	.	4BnXi	.
.	.	.	.	.	.	1c#i	.
=126	=126	=126	=126	=126	=126	=126	=126
*M2/1	*	*M2/1	*	*M2/1	*	*M2/1	*
*met(C|)	*	*met(C|)	*	*met(C|)	*	*met(C|)	*
1D	.	2D	in	2F	in	0d	-ni
.	.	2F	ter-	2A	ter-	.	.
3BB-y	-mi-	2G	-ra	2B-y	-ra	.	.
3C	.	.	.	.	.	.	.
.	.	2F	a-	2A	a-	.	.
3D	.	.	.	.	.	.	.
=127	=127	=127	=127	=127	=127	=127	=127
1GG	-ni	1B-y	-li-	1d	-li-	2r	.
.	.	.	.	.	.	2d	in
2r	.	2A	-e-	2c	-e-	2e	ter-
2D	in	[2d	.	2B-y	.	2d	-ra
=128	=128	=128	=128	=128	=128	=128	=128
1E	ter-	2d]	.	2.G	.	1.g	a-
.	.	2c	.	.	.	.	.
.	.	.	.	4A	.	.	.
1D	-ra	2d	.	4B-y	.	.	.
.	.	.	.	4c	.	.	.
.	.	2A	.	[2d	.	2f	.
=129	=129	=129	=129	=129	=129	=129	=129
1G	a-	1B-y	.	2d]	.	2g	-li-
.	.	.	.	4c	.	4d	-e-
.	.	.	.	4B-y	.	4e	.
2E	-li-	2A	.	4d	.	4f	.
.	.	.	.	4c	.	4g	.
2D	.	2F	.	2f	.	[2a	.
=130	=130	=130	=130	=130	=130	=130	=130
1E	-e-	1G	-na,	2e	-na,	4a]	.
.	.	.	.	.	.	4g	.
.	.	.	.	2c	[in	1g	-na,
1D	.	1A	.	2d	ter-	.	.
.	.	.	.	2A	-ra	2f#i	in
=131	=131	=131	=131	=131	=131	=131	=131
1GG	-na,	2G	in	4B-y	a-	2g	ter-
.	.	.	.	4c	.	.	.
.	.	2B-y	ter-	4d	.	2d	-ra
.	.	.	.	4B-y	.	.	.
2r	.	2A	-ra	2c	-li-	2e	a-
2D	in	[2B-y	a-	[2d	-e-	2d	-li-
=132	=132	=132	=132	=132	=132	=132	=132
1E	ter-	2B-]	.	2d]	.	1.g	-e-
.	.	4A	-li-	2c	.	.	.
.	.	4G	.	.	.	.	.
1D	-ra	2A	.	[1d	-in	.	.
.	.	2A	-e-	.	.	2f#i	.
=133	=133	=133	=133	=133	=133	=133	=133
1G	a-	1B-y	.	2d]	.	2g	.
.	.	.	.	4c	ter-	4d	.
.	.	.	.	4B-y	.	4e	.
2F	-li-	2A	-na,	4d	.	4f	.
.	.	.	.	4c	.	4g	.
2D	.	2d	[a-	2f	-ra	[2a	.
=134	=134	=134	=134	=134	=134	=134	=134
1E	-e-	4c	-li-	2e	a-	4a]	.
.	.	4B-y	.	.	.	4g	.
.	.	4A	.	2c	-li-	1g	.
.	.	4G	.	.	.	.	.
1D	.	1A	-e-	1d	-e-	.	.
.	.	.	.	.	.	2f#i	.
=135	=135	=135	=135	=135	=135	=135	=135
1GG	-na,	[0Gl	-na.]	1B-y	-na,	1g	-na,
2r	.	.	.	2r	.	1d	in
2GG	in	.	.	2B-y	[in	.	.
=136	=136	=136	=136	=136	=136	=136	=136
1C	ter-	0G_	.	1c	ter-	1e	ter-
1GG	-ra	.	.	2B-y	-ra	2d	-ra
.	.	.	.	[2e-i	a-	[2g	a-
=137	=137	=137	=137	=137	=137	=137	=137
1C	a-	0G_	.	4e-]	.	4g]	.
.	.	.	.	4d	-li-	4f	-li-
.	.	.	.	4c	.	4e	.
.	.	.	.	4B-y	.	4d	.
2C	-li-	.	.	1c	-e-	1e	-e-
2C	-e-	.	.	.	.	.	.
=138	=138	=138	=138	=138	=138	=138	=138
00GGl	-na.	00G]	.	00B-yl	-na.]	00dl	-na.
==	==	==	==	==	==	==	==
*-	*-	*-	*-	*-	*-	*-	*-
!!!system-decoration: [*]
!!!YEM: This work is licensed under a Creative Commons Attribution-NonCommercial 4.0 International License
!!!RDF**kern: i = editorial accidental
!!!RDF**kern: l = terminal long
!!!ENC: Maria Elena Cuenca Rodriguez and Vincent Besson
!!!END: 2025/3/14
!!!EED: Benjamin Ory
!!!EEV: 2025/11/12
!!!YEC: Copyright 2025 Citations: The Renaissance Imitation Mass Project, All Rights Reserved
!!!ONB: Translated from MusicXML on 2025/11/12
!!!verovio: header encoded
!!!header-left: Edited by @{ENC} (2025)\n Citations: The Renaissance Imitation Mass Project \n
!!!header-right:
!!!header-center: